apps/mobile/assets/icons/phosphor/arrows-out-line-vertical.svg

<svg
  height="32"
  viewBox="0 0 256 256"
  width="32"
  xmlns="http://www.w3.org/2000/svg"
>
  <path
    d="m224 128a8 8 0 0 1 -8 8h-176a8 8 0 0 1 0-16h176a8 8 0 0 1 8 8zm-122.34-74.34 18.34-18.35v60.69a8 8 0 0 0 16 0v-60.69l18.34 18.35a8 8 0 0 0 11.32-11.32l-32-32a8 8 0 0 0 -11.32 0l-32 32a8 8 0 0 0 11.32 11.32zm52.68 148.68-18.34 18.35v-60.69a8 8 0 0 0 -16 0v60.69l-18.34-18.35a8 8 0 0 0 -11.32 11.32l32 32a8 8 0 0 0 11.32 0l32-32a8 8 0 0 0 -11.32-11.32z"
  />
</svg>

<svg xmlns="http://www.w3.org/2000/svg" width="32" height="32" fill="#000000" viewBox="0 0 256 256"><path d="M224,128a8,8,0,0,1-8,8H40a8,8,0,0,1,0-16H216A8,8,0,0,1,224,128ZM101.66,53.66,120,35.31V96a8,8,0,0,0,16,0V35.31l18.34,18.35a8,8,0,0,0,11.32-11.32l-32-32a8,8,0,0,0-11.32,0l-32,32a8,8,0,0,0,11.32,11.32Zm52.68,148.68L136,220.69V160a8,8,0,0,0-16,0v60.69l-18.34-18.35a8,8,0,0,0-11.32,11.32l32,32a8,8,0,0,0,11.32,0l32-32a8,8,0,0,0-11.32-11.32Z"></path></svg>
